X: 1680
T: Polska ur E L Lindblads notbok
B: [[http://www.smus.se/earkiv/fmk/browselarge.php?lang=sw&katalogid=M+177&bildnr=00101|SMUS - katalog M177 bild 101]] (no 28)
B: E L Lindblads notbok
S: efter [[Personer/E L Lindblad]]
R: Polska
O: Södermanland
Z: Nils L
M: 3/4
L: 1/16
N: Se även [[Musik/1959|+]]
K: Dm
d2>d2 A4 f4 | e2d2 ^c4 d4 | e2f2 g2f2 e2d2 | ^c2e2 A8 |
d2>d2 A4 f4 | e2d2 ^c4 d4 | "^*"e2f2 g2f2 e2d2 | ^c2e2 A8 ::
f2>e2 f4 a4 | g2>f2 e4 g4 | f2e2 d2f2 e2d2 | ^c2e2 d8 :|
W: *originalnoterna är litet otydliga här
(:musicend:)

Låten påminner en aning om följande Polonäs efter Blidström:

(:music:)
